understanding/21/img/1.4.11-ntc-star-examples-fail.svg

<svg role="image img" width="321" height="146" viewBox="0 0 321 146" fill="none" xmlns="http://www.w3.org/2000/svg">
  <title>Two star ratings, the first uses 5 stars with a black outline and a yellow or white fill, where yellow indicates checked. The second uses only pale yellow stars on white.</title>
  <rect width="321" height="146" fill="white"/>
  <path d="M46.0244 22.3164C46.1741 21.8558 46.8259 21.8558 46.9756 22.3164L52.2734 38.6172C52.4743 39.2352 53.0504 39.6543 53.7002 39.6543H70.8438C71.3278 39.6546 71.5291 40.2739 71.1377 40.5586L57.2686 50.6328C56.7428 51.0148 56.5228 51.6915 56.7236 52.3096L62.0215 68.6104C62.1708 69.0708 61.6437 69.4535 61.252 69.1689L47.3818 59.0947C46.8889 58.7367 46.232 58.7139 45.7188 59.0273L45.6182 59.0947L31.748 69.1689C31.3563 69.4535 30.8292 69.0708 30.9785 68.6104L36.2764 52.3096C36.4772 51.6915 36.2572 51.0148 35.7314 50.6328L21.8623 40.5586C21.4709 40.2739 21.6722 39.6546 22.1562 39.6543H39.2998C39.9496 39.6543 40.5257 39.2352 40.7266 38.6172L46.0244 22.3164Z" fill="#FFF000" stroke="black" stroke-width="3" stroke-linejoin="round"/>
  <path d="M103.024 22.3164C103.174 21.8558 103.826 21.8558 103.976 22.3164L109.273 38.6172C109.474 39.2352 110.05 39.6543 110.7 39.6543H127.844C128.328 39.6546 128.529 40.2739 128.138 40.5586L114.269 50.6328C113.743 51.0148 113.523 51.6915 113.724 52.3096L119.021 68.6104C119.171 69.0708 118.644 69.4535 118.252 69.1689L104.382 59.0947C103.889 58.7367 103.232 58.7139 102.719 59.0273L102.618 59.0947L88.748 69.1689C88.3563 69.4535 87.8292 69.0708 87.9785 68.6104L93.2764 52.3096C93.4772 51.6915 93.2572 51.0148 92.7314 50.6328L78.8623 40.5586C78.4709 40.2739 78.6722 39.6546 79.1562 39.6543H96.2998C96.9496 39.6543 97.5257 39.2352 97.7266 38.6172L103.024 22.3164Z" fill="#FFF000" stroke="black" stroke-width="3" stroke-linejoin="round"/>
  <path d="M160.024 22.3164C160.174 21.8558 160.826 21.8558 160.976 22.3164L166.273 38.6172C166.474 39.2352 167.05 39.6543 167.7 39.6543H184.844C185.328 39.6546 185.529 40.2739 185.138 40.5586L171.269 50.6328C170.743 51.0148 170.523 51.6915 170.724 52.3096L176.021 68.6104C176.171 69.0708 175.644 69.4535 175.252 69.1689L161.382 59.0947C160.889 58.7367 160.232 58.7139 159.719 59.0273L159.618 59.0947L145.748 69.1689C145.356 69.4535 144.829 69.0708 144.979 68.6104L150.276 52.3096C150.477 51.6915 150.257 51.0148 149.731 50.6328L135.862 40.5586C135.471 40.2739 135.672 39.6546 136.156 39.6543H153.3C153.95 39.6543 154.526 39.2352 154.727 38.6172L160.024 22.3164Z" stroke="black" stroke-width="3" stroke-linejoin="round"/>
  <path d="M217.024 22.3164C217.174 21.8558 217.826 21.8558 217.976 22.3164L223.273 38.6172C223.474 39.2352 224.05 39.6543 224.7 39.6543H241.844C242.328 39.6546 242.529 40.2739 242.138 40.5586L228.269 50.6328C227.743 51.0148 227.523 51.6915 227.724 52.3096L233.021 68.6104C233.171 69.0708 232.644 69.4535 232.252 69.1689L218.382 59.0947C217.889 58.7367 217.232 58.7139 216.719 59.0273L216.618 59.0947L202.748 69.1689C202.356 69.4535 201.829 69.0708 201.979 68.6104L207.276 52.3096C207.477 51.6915 207.257 51.0148 206.731 50.6328L192.862 40.5586C192.471 40.2739 192.672 39.6546 193.156 39.6543H210.3C210.95 39.6543 211.526 39.2352 211.727 38.6172L217.024 22.3164Z" stroke="black" stroke-width="3" stroke-linejoin="round"/>
  <path d="M274.024 22.3164C274.174 21.8558 274.826 21.8558 274.976 22.3164L280.273 38.6172C280.474 39.2352 281.05 39.6543 281.7 39.6543H298.844C299.328 39.6546 299.529 40.2739 299.138 40.5586L285.269 50.6328C284.743 51.0148 284.523 51.6915 284.724 52.3096L290.021 68.6104C290.171 69.0708 289.644 69.4535 289.252 69.1689L275.382 59.0947C274.889 58.7367 274.232 58.7139 273.719 59.0273L273.618 59.0947L259.748 69.1689C259.356 69.4535 258.829 69.0708 258.979 68.6104L264.276 52.3096C264.477 51.6915 264.257 51.0148 263.731 50.6328L249.862 40.5586C249.471 40.2739 249.672 39.6546 250.156 39.6543H267.3C267.95 39.6543 268.526 39.2352 268.727 38.6172L274.024 22.3164Z" stroke="black" stroke-width="3" stroke-linejoin="round"/>
  <path d="M44.5979 77.8525C45.1967 76.0101 47.8033 76.0101 48.4021 77.8525L53.7001 94.154H70.8434C72.781 94.154 73.5864 96.6335 72.0188 97.7722L58.15 107.846L63.4476 124.146C64.0465 125.989 61.9377 127.521 60.3702 126.383L46.5 116.308L32.6298 126.383C31.0623 127.521 28.9535 125.989 29.5524 124.146L34.85 107.846L20.9812 97.7722C19.4136 96.6335 20.219 94.154 22.1566 94.154H39.2999L44.5979 77.8525Z" fill="#FFF000"/>
  <path d="M101.598 77.8525C102.197 76.0101 104.803 76.0101 105.402 77.8525L110.7 94.154H127.843C129.781 94.154 130.586 96.6335 129.019 97.7722L115.15 107.846L120.448 124.146C121.046 125.989 118.938 127.521 117.37 126.383L103.5 116.308L89.6298 126.383C88.0623 127.521 85.9535 125.989 86.5524 124.146L91.85 107.846L77.9812 97.7722C76.4136 96.6335 77.219 94.154 79.1566 94.154H96.2999L101.598 77.8525Z" fill="#FFF000"/>
</svg>

<svg role="image" width="321" height="146" viewBox="0 0 321 146" fill="none" xmlns="http://www.w3.org/2000/svg">
  <title>Two star ratings, the first uses 5 stars with a black outline and a yellow or white fill, where yellow indicates checked. The second uses only pale yellow stars on white.</title>
  <rect width="321" height="146" fill="#fff"/>
  <path d="M46.02 22.32a.5.5 0 0 1 .96 0l5.3 16.3.33 1.03h18.23a.5.5 0 0 1 .3.9L57.27 50.64l-.88.64.33 1.04 5.3 16.3a.5.5 0 0 1-.77.56L47.38 59.09l-.88-.64-.88.64-13.87 10.08a.5.5 0 0 1-.77-.56l5.3-16.3.33-1.04-.88-.64-13.87-10.07a.5.5 0 0 1 .3-.9h18.23l.34-1.04zm57 0a.5.5 0 0 1 .96 0l5.3 16.3.33 1.03h18.23a.5.5 0 0 1 .3.9l-13.87 10.08-.88.64.33 1.04 5.3 16.3a.5.5 0 0 1-.77.56l-13.87-10.08-.88-.64-.88.64-13.87 10.08a.5.5 0 0 1-.77-.56l5.3-16.3.33-1.04-.88-.64-13.87-10.07a.5.5 0 0 1 .3-.9h18.23l.34-1.04z" fill="#fff000" stroke="#000" stroke-width="3" stroke-linejoin="round"/>
  <path d="M160.02 22.32a.5.5 0 0 1 .96 0l5.3 16.3.33 1.03h18.23a.5.5 0 0 1 .3.9l-13.87 10.08-.88.64.33 1.04 5.3 16.3a.5.5 0 0 1-.77.56l-13.87-10.08-.88-.64-.88.64-13.87 10.08a.5.5 0 0 1-.77-.56l5.3-16.3.33-1.04-.88-.64-13.87-10.07a.5.5 0 0 1 .3-.9h18.23l.34-1.04zm57 0a.5.5 0 0 1 .96 0l5.3 16.3.33 1.03h18.23a.5.5 0 0 1 .3.9l-13.87 10.08-.88.64.33 1.04 5.3 16.3a.5.5 0 0 1-.77.56l-13.87-10.08-.88-.64-.88.64-13.87 10.08a.5.5 0 0 1-.77-.56l5.3-16.3.33-1.04-.88-.64-13.87-10.07a.5.5 0 0 1 .3-.9h18.23l.34-1.04zm57 0a.5.5 0 0 1 .96 0l5.3 16.3.33 1.03h18.23a.5.5 0 0 1 .3.9l-13.87 10.08-.88.64.33 1.04 5.3 16.3a.5.5 0 0 1-.77.56l-13.87-10.08-.88-.64-.88.64-13.87 10.08a.5.5 0 0 1-.77-.56l5.3-16.3.33-1.04-.88-.64-13.87-10.07a.5.5 0 0 1 .3-.9h18.23l.34-1.04z" stroke="#000" stroke-width="3" stroke-linejoin="round"/>
  <path d="M44.6 77.85a2 2 0 0 1 3.8 0l5.3 16.3h17.14a2 2 0 0 1 1.18 3.62l-13.87 10.08 5.3 16.3a2 2 0 0 1-3.08 2.23L46.5 116.31l-13.87 10.07a2 2 0 0 1-3.08-2.23l5.3-16.3-13.87-10.08a2 2 0 0 1 1.18-3.62H39.3zm57 0a2 2 0 0 1 3.8 0l5.3 16.3h17.14a2 2 0 0 1 1.18 3.62l-13.87 10.08 5.3 16.3a2 2 0 0 1-3.08 2.23l-13.87-10.07-13.87 10.07a2 2 0 0 1-3.08-2.23l5.3-16.3-13.87-10.08a2 2 0 0 1 1.18-3.62H96.3z" fill="#fff000"/>
</svg>
